!!! OTL: Berkowitz525
!!! Chapter: 1
!!! Section: IV
!!! Page: 131
!!! Mode: 
!!! Encoder: DJB
**kern
*staff1
*I"Piano
=1-
*clefG2
*k[f#c#g#]
*b:
*M7/4
4B/
8B/
4f#/
8f#/
4e/
4e/
4a/
4g#/
=2
4f#/
8f#/L
[8d/
8d/]
8d/J
4e/
4d/
4c#/
4B/
=3
4B/
8B/
4f#/
8f#/
4e/
4e/
4a/
4g#/
=4
4f#/
8f#/L
[8d/
8d/]
8d/J
4e/
4d/
4c#/
4B/
=5
!!linebreak:original
4b\
8b\
4a/
8a/
4g#/
4a/
4g#/
4f#/
=6
4b\
8b\
4dd\
8dd\
4cc#\
4dd\
4cc#\
4a/
=7
4b\
8b\
4a/
8a/
4g#/
4a/
4g#/
4f#/
=8
4e/
8e/
4f#/
8B/
4e/
4d/
4c#/
4B/
==
*-
